icon-themes/colibre_svg/vcl/res/draw_pie.svg

<svg viewBox="0 0 256 256" xmlns="http://www.w3.org/2000/svg"><path d="m84 16v8 48h-56v24h56v56h24v-56h56v-24h-56v-56zm104 120c-21.99663 0-40 18.00337-40 40s18.00337 40 40 40 40-18.00337 40-40v-8h-32v-32z" fill="#fff"/><path d="m92 24v56h-56v8h56v56h8v-56h56v-8h-56v-56zm96 120a32 32 0 0 0 -32 32 32 32 0 0 0 32 32 32 32 0 0 0 32-32h-8-24v-24zm-8 9.39062v22.60938 8h30.59375a24 24 0 0 1 -22.59375 16 24 24 0 0 1 -24-24 24 24 0 0 1 16-22.60938z"/></svg>

<svg xmlns="http://www.w3.org/2000/svg" viewBox="0 0 256 256">
  <path
     style="fill:#ffffff"
     d="m 84,16 v 8 48 H 28 v 24 h 56 v 56 h 24 V 96 h 56 V 72 H 108 V 16 Z m 104,120 c -21.99663,0 -40,18.00337 -40,40 0,21.99663 18.00337,40 40,40 21.99663,0 40,-18.00337 40,-40 v -8 h -32 v -32 z"
     />
  <path
     style="fill:#000000"
     d="M 92,24 V 80 H 36 v 8 h 56 v 56 h 8 V 88 h 56 V 80 H 100 V 24 Z m 96,120 a 32,32 0 0 0 -32,32 32,32 0 0 0 32,32 32,32 0 0 0 32,-32 h -8 -24 v -24 z m -8,9.39062 V 176 v 8 h 30.59375 A 24,24 0 0 1 188,200 24,24 0 0 1 164,176 24,24 0 0 1 180,153.39062 Z"
     />
</svg>
